assets/icons/qvision/colorize.svg

<svg xmlns="http://www.w3.org/2000/svg" height="24" viewBox="0 0 24 24" width="24"><path d="M0 0h24v24H0z" fill="none"/><path d="M20.71 5.63l-2.34-2.34c-.39-.39-1.02-.39-1.41 0l-3.12 3.12-1.93-1.91-1.41 1.41 1.42 1.42L3 16.25V21h4.75l8.92-8.92 1.42 1.42 1.41-1.41-1.92-1.92 3.12-3.12c.4-.4.4-1.03.01-1.42zM6.92 19L5 17.08l8.06-8.06 1.92 1.92L6.92 19z"/></svg>

<svg width="24" height="24" viewBox="0 0 24 24" fill="none" xmlns="http://www.w3.org/2000/svg">
<g clip-path="url(#clip0_147_3309)">
<path d="M20.71 5.63L18.37 3.29C17.98 2.9 17.35 2.9 16.96 3.29L13.84 6.41L11.91 4.5L10.5 5.91L11.92 7.33L3 16.25V21H7.75L16.67 12.08L18.09 13.5L19.5 12.09L17.58 10.17L20.7 7.05C21.1 6.65 21.1 6.02 20.71 5.63ZM6.92 19L5 17.08L13.06 9.02L14.98 10.94L6.92 19Z" fill="#323232"/>
</g>
<defs>
<clipPath id="clip0_147_3309">
<rect width="24" height="24" fill="white"/>
</clipPath>
</defs>
</svg>
